pgmapcss/icons/maki/rail-light-24.svg

<?xml version="1.0" encoding="UTF-8" standalone="no"?>
<!-- Created with Inkscape (http://www.inkscape.org/) -->

<svg
   xmlns:dc="http://purl.org/dc/elements/1.1/"
   xmlns:cc="http://creativecommons.org/ns#"
   xmlns:rdf="http://www.w3.org/1999/02/22-rdf-syntax-ns#"
   xmlns:svg="http://www.w3.org/2000/svg"
   xmlns="http://www.w3.org/2000/svg"
   version="1.1"
   width="24"
   height="24"
   id="svg4460">
  <defs
     id="defs4462" />
  <metadata
     id="metadata4465">
    <rdf:RDF>
      <cc:Work
         rdf:about="">
        <dc:format>image/svg+xml</dc:format>
        <dc:type
           rdf:resource="http://purl.org/dc/dcmitype/StillImage" />
        <dc:title></dc:title>
      </cc:Work>
    </rdf:RDF>
  </metadata>
  <path
     d="M 12.5,2 C 8.9101492,2 6,4.686308 6,8 l 0,8 c 0,0.554 0.446,1 1,1 l 11,0 c 0.554,0 1,-0.446 1,-1 L 19,8 C 19,4.686308 16.08985,2 12.5,2 z M 12,4.0625 12,10 8,10 8,8 C 8,5.9435518 9.753915,4.2868455 12,4.0625 z m 1,0 C 15.246085,4.2868455 17,5.9435518 17,8 l 0,2 -4,0 0,-5.9375 z M 9,13 c 0.5522847,0 1,0.447715 1,1 0,0.552285 -0.4477153,1 -1,1 -0.5522847,0 -1,-0.447715 -1,-1 0,-0.552285 0.4477153,-1 1,-1 z m 7,0 c 0.552285,0 1,0.447715 1,1 0,0.552285 -0.447715,1 -1,1 -0.552285,0 -1,-0.447715 -1,-1 0,-0.552285 0.447715,-1 1,-1 z m -7,5 -3,3 4,0 2,-3 -3,0 z m 4,0 2,3 4,0 -3,-3 -3,0 z"
     id="path9643"
     style="opacity:0.3;fill:none;stroke:#ffffff;stroke-width:2;stroke-linecap:round;stroke-linejoin:round;stroke-miterlimit:4;stroke-opacity:1;stroke-dasharray:none" />
  <path
     d="M 12.5,2 C 8.9101492,2 6,4.686308 6,8 l 0,8 c 0,0.554 0.446,1 1,1 l 11,0 c 0.554,0 1,-0.446 1,-1 L 19,8 C 19,4.686308 16.08985,2 12.5,2 z M 12,4.0625 12,10 8,10 8,8 C 8,5.9435518 9.753915,4.2868455 12,4.0625 z m 1,0 C 15.246085,4.2868455 17,5.9435518 17,8 l 0,2 -4,0 0,-5.9375 z M 9,13 c 0.5522847,0 1,0.447715 1,1 0,0.552285 -0.4477153,1 -1,1 -0.5522847,0 -1,-0.447715 -1,-1 0,-0.552285 0.4477153,-1 1,-1 z m 7,0 c 0.552285,0 1,0.447715 1,1 0,0.552285 -0.447715,1 -1,1 -0.552285,0 -1,-0.447715 -1,-1 0,-0.552285 0.447715,-1 1,-1 z m -7,5 -3,3 4,0 2,-3 -3,0 z m 4,0 2,3 4,0 -3,-3 -3,0 z"
     id="rect3109"
     style="fill:#444444;fill-opacity:1;stroke:none" />
  <rect
     width="24"
     height="24"
     x="0"
     y="0"
     id="canvas"
     style="fill:none;stroke:none;visibility:hidden" />
</svg>

<?xml version="1.0" encoding="UTF-8" standalone="no"?>
<!-- Created with Inkscape (http://www.inkscape.org/) -->

<svg
   xmlns:dc="http://purl.org/dc/elements/1.1/"
   xmlns:cc="http://creativecommons.org/ns#"
   xmlns:rdf="http://www.w3.org/1999/02/22-rdf-syntax-ns#"
   xmlns:svg="http://www.w3.org/2000/svg"
   xmlns="http://www.w3.org/2000/svg"
   xmlns:sodipodi="http://sodipodi.sourceforge.net/DTD/sodipodi-0.dtd"
   xmlns:inkscape="http://www.inkscape.org/namespaces/inkscape"
   width="24"
   height="24"
   id="svg4460"
   version="1.1"
   inkscape:version="0.48.4 r"
   sodipodi:docname="rail-light-24.svg">
  <defs
     id="defs4462" />
  <sodipodi:namedview
     id="base"
     pagecolor="#ffffff"
     bordercolor="#666666"
     borderopacity="1.0"
     inkscape:pageopacity="0.0"
     inkscape:pageshadow="2"
     inkscape:zoom="22.627417"
     inkscape:cx="9.256576"
     inkscape:cy="12.153836"
     inkscape:document-units="px"
     inkscape:current-layer="layer1"
     showgrid="true"
     showguides="true"
     inkscape:guide-bbox="true"
     inkscape:window-width="1558"
     inkscape:window-height="925"
     inkscape:window-x="105"
     inkscape:window-y="0"
     inkscape:window-maximized="0">
    <inkscape:grid
       type="xygrid"
       id="grid4468"
       empspacing="2"
       visible="true"
       enabled="true"
       snapvisiblegridlinesonly="true"
       color="#ff00ff"
       opacity="0.1254902"
       empcolor="#ff00ff"
       empopacity="0.25098039" />
    <sodipodi:guide
       orientation="1,0"
       position="0,20"
       id="guide4470" />
    <sodipodi:guide
       orientation="0,1"
       position="4,24"
       id="guide4472" />
    <sodipodi:guide
       orientation="1,0"
       position="24,13"
       id="guide4474" />
    <sodipodi:guide
       orientation="0,1"
       position="15,0"
       id="guide4476" />
    <sodipodi:guide
       orientation="1,0"
       position="23,20"
       id="guide4478" />
    <sodipodi:guide
       orientation="0,1"
       position="-20,24"
       id="guide4480" />
    <sodipodi:guide
       orientation="1,0"
       position="2,5"
       id="guide4482" />
    <sodipodi:guide
       orientation="0,1"
       position="7,2"
       id="guide4484" />
    <sodipodi:guide
       orientation="1,0"
       position="12.5,11.5"
       id="guide4486" />
    <sodipodi:guide
       orientation="0,1"
       position="16,13"
       id="guide4490" />
    <sodipodi:guide
       orientation="1,0"
       position="3,13.5"
       id="guide3012" />
    <sodipodi:guide
       orientation="0,1"
       position="6.5,22"
       id="guide3014" />
    <sodipodi:guide
       orientation="1,0"
       position="22,18"
       id="guide3016" />
    <sodipodi:guide
       orientation="0,1"
       position="13.5,3"
       id="guide3018" />
  </sodipodi:namedview>
  <metadata
     id="metadata4465">
    <rdf:RDF>
      <cc:Work
         rdf:about="">
        <dc:format>image/svg+xml</dc:format>
        <dc:type
           rdf:resource="http://purl.org/dc/dcmitype/StillImage" />
        <dc:title />
      </cc:Work>
    </rdf:RDF>
  </metadata>
  <g
     inkscape:label="Layer 1"
     inkscape:groupmode="layer"
     id="layer1"
     transform="translate(0,-1028.3622)">
    <path
       style="font-size:medium;font-style:normal;font-variant:normal;font-weight:normal;font-stretch:normal;text-indent:0;text-align:start;text-decoration:none;line-height:normal;letter-spacing:normal;word-spacing:normal;text-transform:none;direction:ltr;block-progression:tb;writing-mode:lr-tb;text-anchor:start;baseline-shift:baseline;color:#000000;fill:#ffffff;fill-opacity:1;stroke:none;stroke-width:2;marker:none;visibility:visible;display:inline;overflow:visible;enable-background:accumulate;font-family:Sans;-inkscape-font-specification:Sans;opacity:0.3"
       d="M 12.5 1 C 8.4112783 1 5 4.1008 5 8 L 5 16 C 5 17.0907 5.9092972 18 7 18 L 7.5625 18 L 5.28125 20.28125 C 4.7068834 20.83665 5.201277 22.0188 6 22 L 10 22 C 10.335757 22 10.665381 21.81575 10.84375 21.53125 L 12.5 19.0625 L 14.15625 21.53125 C 14.334619 21.81575 14.664243 21.9988 15 22 L 19 22 C 19.798723 22.019 20.293117 20.83665 19.71875 20.28125 L 17.4375 18 L 18 18 C 19.090703 18 20 17.0907 20 16 L 20 8 C 20 4.1008 16.588721 1 12.5 1 z M 11 5.53125 L 11 9 L 9 9 L 9 8 C 9 6.8778 9.862402 6.03275 11 5.53125 z M 14 5.53125 C 15.137598 6.03275 16 6.8778 16 8 L 16 9 L 14 9 L 14 5.53125 z "
       transform="translate(0,1028.3622)"
       id="path4064" />
    <path
       style="fill:#444444;fill-opacity:1;stroke:none"
       d="M 12.5 2 C 8.9101492 2 6 4.686308 6 8 L 6 16 C 6 16.554 6.446 17 7 17 L 18 17 C 18.554 17 19 16.554 19 16 L 19 8 C 19 4.686308 16.08985 2 12.5 2 z M 12 4.0625 L 12 10 L 8 10 L 8 8 C 8 5.9435518 9.753915 4.2868455 12 4.0625 z M 13 4.0625 C 15.246085 4.2868455 17 5.9435518 17 8 L 17 10 L 13 10 L 13 4.0625 z M 9 13 C 9.5522847 13 10 13.447715 10 14 C 10 14.552285 9.5522847 15 9 15 C 8.4477153 15 8 14.552285 8 14 C 8 13.447715 8.4477153 13 9 13 z M 16 13 C 16.552285 13 17 13.447715 17 14 C 17 14.552285 16.552285 15 16 15 C 15.447715 15 15 14.552285 15 14 C 15 13.447715 15.447715 13 16 13 z M 9 18 L 6 21 L 10 21 L 12 18 L 9 18 z M 13 18 L 15 21 L 19 21 L 16 18 L 13 18 z "
       transform="translate(0,1028.3622)"
       id="rect3109" />
  </g>
</svg>
